img/facebook-icon.svg

<svg width="22" height="22" viewBox="0 0 22 22" fill="none" xmlns="http://www.w3.org/2000/svg">
<path fill-rule="evenodd" clip-rule="evenodd" d="M11 22C17.0751 22 22 17.0751 22 11C22 4.92487 17.0751 0 11 0C4.92487 0 0 4.92487 0 11C0 16.4216 3.92234 20.9272 9.08416 21.8337V21.8699C9.64599 21.956 10.2208 22 10.8063 22C10.8389 22 10.8715 21.9999 10.904 21.9996C10.936 21.9999 10.968 22 11 22ZM10.904 21.9996C11.4558 21.995 11.9979 21.9512 12.5284 21.8699V14.3641H15.0965L15.5851 11.2594H12.5284V9.24549C12.5284 8.39591 12.9546 7.56727 14.3237 7.56727H15.7143V4.92406C15.7143 4.92406 14.4528 4.71429 13.2474 4.71429C10.7288 4.71429 9.08416 6.2016 9.08416 8.89306V11.2594H6.28571V14.3641H9.08416V21.8337C9.67585 21.9377 10.2838 21.9943 10.904 21.9996Z" fill="#FDFDFD"/>
</svg>

<svg xmlns="http://www.w3.org/2000/svg" width="22" height="22" fill="none" xmlns:v="https://vecta.io/nano"><path fill-rule="evenodd" d="M11 22c6.075 0 11-4.925 11-11S17.075 0 11 0 0 4.925 0 11c0 5.422 3.922 9.927 9.084 10.834v.036a11.36 11.36 0 0 0 1.722.13h.098H11zm-.096 0a11.34 11.34 0 0 0 1.624-.13v-7.506h2.568l.489-3.105h-3.057V9.245c0-.85.426-1.678 1.795-1.678h1.391V4.924s-1.261-.21-2.467-.21c-2.519 0-4.163 1.487-4.163 4.179v2.366H6.286v3.105h2.798v7.47a11.05 11.05 0 0 0 1.82.166z" fill="#fdfdfd"/></svg>
